X:1
T:Title
%%score { ( 1 3 ) | ( 2 4 ) }
L:1/8
M:2/4
K:G
V:1 treble nm="Grand Piano"
V:3 treble 
V:2 bass 
V:4 bass 
V:1
 z2 z[Q:1/4=92] [B,D] | [B,D][B,G] [DG]A | B B2 B | [Ec][Ec] [CE][Ec] |[M:3/8] [DB]3 | %5
[M:1/8] [GB] |[M:2/4] [FB][FA] [=F^G][^FA] | D A2 B | [Ec][Ec] [DB][DA] |[M:1/4] [DB]2 | BG | %11
[M:2/4] D4 | [G,B,D][B,DG] [B,DG]2 | B4 | Bd d2 | e4 | ed BG | [GB]2 [FA]2 |[M:1/4] G2 | BG | %20
[M:2/4] D4 | [G,B,D][B,DG] [B,DG]2 | B4 | Bd d2 | e4 | ed BG | [DGB]2 [CFA]2 |[M:3/8] [B,G]3 |] %28
V:2
 z2 z [G,,G,] | [G,,G,][G,,G,] [B,,G,][D,F,D] | [G,D] [G,D]2 [G,D] | [C,G,][C,G,] [C,G,][C,G,] | %4
[M:3/8] [G,,G,]3 |[M:1/8] [G,D] |[M:2/4] [D,D][D,C] [D,B,][D,C] | [D,F,C] [D,F,C]2 [D,F,D] | %8
 [D,F,][D,F,] [D,F,][D,F,] |[M:1/4] [G,,G,]2 | DB, |[M:2/4] B,4 | G,,G,, G,,2 | G4 | %14
 [G,DG][G,B,G] [G,B,G]2 | G4[K:bass] | [G,B,G][G,B,G] [G,DG][K:bass][E,^C] | [D,D]2 [D,C]2 | %18
[M:1/4] [G,B,]2 | DB, |[M:2/4] B,4 | G,,G,, G,,2 | G4 | [G,DG][G,B,G] [G,B,G]2 | G4[K:bass] | %25
 [G,B,G][G,B,G] [G,DG][K:bass][E,^C] | D,2 D,2 |[M:3/8] G,,3 |] %28
V:3
 x4 | x4 | x4 | x4 |[M:3/8] x3 |[M:1/8] x |[M:2/4] x4 | x4 | x4 |[M:1/4] x2 | x2 | %11
[M:2/4] z G, G,[G,CE] | x4 | z D DA | x4 | z C C[Gd] | x4 | x4 |[M:1/4] x2 | x2 | %20
[M:2/4] z G, G,[G,CE] | x4 | z D DA | x4 | z C C[Gd] | x4 | x4 |[M:3/8] x3 |] %28
V:4
 x4 | x4 | x4 | x4 |[M:3/8] x3 |[M:1/8] x |[M:2/4] x4 | x4 | x4 |[M:1/4] x2 | x2 | %11
[M:2/4] z G,, G,,G,, | x4 | z G, G,[G,DF] | x4 | z[K:bass] C, C,[C,C] | x3[K:bass] x | x4 | %18
[M:1/4] x2 | x2 |[M:2/4] z G,, G,,G,, | x4 | z G, G,[G,DF] | x4 | z[K:bass] C, C,[C,C] | %25
 x3[K:bass] x | x4 |[M:3/8] x3 |] %28

